assets/icons/few-clouds-filled.svg

<?xml version="1.0" encoding="UTF-8" standalone="no"?>
<svg
   viewBox="0 0 24 24"
   height="24"
   id="svg7384"
   version="1.1"
   width="24"
   sodipodi:docname="few-clouds-filled.svg"
   inkscape:version="1.2 (1:1.2.1+202207142221+cd75a1ee6d)"
   xmlns:inkscape="http://www.inkscape.org/namespaces/inkscape"
   xmlns:sodipodi="http://sodipodi.sourceforge.net/DTD/sodipodi-0.dtd"
   xmlns="http://www.w3.org/2000/svg"
   xmlns:svg="http://www.w3.org/2000/svg"
   xmlns:rdf="http://www.w3.org/1999/02/22-rdf-syntax-ns#"
   xmlns:cc="http://creativecommons.org/ns#"
   xmlns:dc="http://purl.org/dc/elements/1.1/">
  <sodipodi:namedview
     id="namedview21"
     pagecolor="#ffffff"
     bordercolor="#666666"
     borderopacity="1.0"
     inkscape:pageshadow="2"
     inkscape:pageopacity="0.0"
     inkscape:pagecheckerboard="0"
     showgrid="true"
     width="24px"
     inkscape:zoom="27.999943"
     inkscape:cx="16.464319"
     inkscape:cy="12.892883"
     inkscape:window-width="1920"
     inkscape:window-height="1043"
     inkscape:window-x="0"
     inkscape:window-y="0"
     inkscape:window-maximized="1"
     inkscape:current-layer="svg7384"
     inkscape:showpageshadow="2"
     inkscape:deskcolor="#d1d1d1">
    <inkscape:grid
       type="xygrid"
       id="grid118" />
  </sodipodi:namedview>
  <metadata
     id="metadata20854">
    <rdf:RDF>
      <cc:Work
         rdf:about="">
        <dc:format>image/svg+xml</dc:format>
        <dc:type
           rdf:resource="http://purl.org/dc/dcmitype/StillImage" />
      </cc:Work>
    </rdf:RDF>
  </metadata>
  <defs
     id="defs7386">
    <linearGradient
       id="linearGradient5606"
       inkscape:swatch="solid">
      <stop
         id="stop5608"
         offset="0"
         style="stop-color:#000000;stop-opacity:1;" />
    </linearGradient>
    <linearGradient
       id="linearGradient4526"
       inkscape:swatch="solid">
      <stop
         id="stop4528"
         offset="0"
         style="stop-color:#ffffff;stop-opacity:1;" />
    </linearGradient>
    <linearGradient
       id="linearGradient3600-4"
       inkscape:swatch="gradient">
      <stop
         id="stop3602-7"
         offset="0"
         style="stop-color:#f4f4f4;stop-opacity:1" />
      <stop
         id="stop3604-6"
         offset="1"
         style="stop-color:#dbdbdb;stop-opacity:1" />
    </linearGradient>
  </defs>
  <path
     id="path30"
     style="fill:#808080;fill-opacity:1;fill-rule:evenodd;stroke-width:0.5;stroke-linecap:square;stroke-linejoin:round"
     d="M 11 2 L 11 5 L 12 5 L 12 2 L 11 2 z M 7.1835938 3.0234375 L 6.3164062 3.5234375 L 7.8164062 6.1210938 L 8.6835938 5.6210938 L 7.1835938 3.0234375 z M 15.816406 3.0234375 L 14.316406 5.6210938 L 15.183594 6.1210938 L 16.683594 3.5234375 L 15.816406 3.0234375 z M 11.5 6 A 5.5 5.5 0 0 0 6 11.5 A 5.5 5.5 0 0 0 9.015625 16.394531 C 9.6365904 15.715564 10.494605 15.250124 11.453125 15.111328 C 12.218516 13.277253 13.966958 12.0045 15.998047 12 A 1.0001 1.0001 0 0 0 16 12 C 16.328247 12 16.648136 12.031879 16.957031 12.09375 A 5.5 5.5 0 0 0 17 11.5 A 5.5 5.5 0 0 0 11.5 6 z M 3.5234375 6.3164062 L 3.0234375 7.1835938 L 5.6210938 8.6835938 L 6.1210938 7.8164062 L 3.5234375 6.3164062 z M 19.476562 6.3164062 L 16.878906 7.8164062 L 17.378906 8.6835938 L 19.976562 7.1835938 L 19.476562 6.3164062 z M 2 11 L 2 12 L 5 12 L 5 11 L 2 11 z M 18 11 L 18 12 L 21 12 L 21 11 L 18 11 z M 16 13 C 14.17777 13.004 12.58854 14.239076 12.134766 16.003906 C 12.089876 16.001606 12.044946 16.0003 12 16 C 10.34315 16 9 17.34315 9 19 C 9 20.65685 10.34315 22 12 22 L 19.5 22 C 20.88071 22 22 20.88071 22 19.5 C 21.999494 18.310925 21.161523 17.286739 19.996094 17.050781 C 19.997494 17.033861 19.9988 17.01693 20 17 C 20 14.790865 18.209135 13 16 13 z M 5.6210938 14.316406 L 3.0234375 15.816406 L 3.5234375 16.683594 L 6.1210938 15.183594 L 5.6210938 14.316406 z M 7.8164062 16.878906 L 6.3164062 19.476562 L 7.1835938 19.976562 L 8.0351562 18.501953 C 8.0937222 18.049087 8.2282079 17.620774 8.4296875 17.232422 L 7.8164062 16.878906 z " />
</svg>

<svg height="24" width="24" xmlns="http://www.w3.org/2000/svg"><path style="fill:gray;fill-opacity:1;stroke-width:.5;stroke-linecap:square;stroke-linejoin:round" d="M11 2v3h1V2h-1zM7.184 3.023l-.868.5 1.5 2.598.868-.5-1.5-2.598zm8.632 0-1.5 2.598.868.5 1.5-2.598-.868-.5zM11.5 6A5.5 5.5 0 0 0 6 11.5a5.5 5.5 0 0 0 3.016 4.895 4.1 4.1 0 0 1 2.437-1.284c.766-1.834 2.514-3.107 4.545-3.111A1 1 0 0 0 16 12c.328 0 .648.032.957.094A5.5 5.5 0 0 0 17 11.5 5.5 5.5 0 0 0 11.5 6zm-7.977.316-.5.868 2.598 1.5.5-.868-2.598-1.5zm15.954 0-2.598 1.5.5.868 2.598-1.5-.5-.868zM2 11v1h3v-1H2zm16 0v1h3v-1h-3zm-2 2a4 4 0 0 0-3.865 3.004A3 3 0 1 0 12 22h7.5a2.5 2.5 0 0 0 .496-4.95A4.32 4.32 0 0 0 20 17a4 4 0 0 0-4-4zM5.621 14.316l-2.598 1.5.5.868 2.598-1.5-.5-.868zm2.195 2.563-1.5 2.598.868.5.851-1.475a3.82 3.82 0 0 1 .395-1.27l-.614-.353z"/></svg>
